X: 7926
T:Til Far
R:Slow air
O:Sweden
M:4/4
A:Dalarna
K:DDor
A,2 |\
D2DE FED^C | D6 DE | F2 Ac B2AG | A6 A2 |\
d3c d2c2 | A3G F2AF | G3F E2C2 | D6 :|
|: A2 |\
f3e f2g2 | a3g a2g2 | fgfe d2c2 | d3c d2c2 |\
A3G F2AF |1 G3G F2G2 | A6 :|2 G3F E2C2 | D6 :|
